build/img/icon-map.svg

<svg width="29" height="24" viewBox="0 0 29 24" fill="none" xmlns="http://www.w3.org/2000/svg">
<g clip-path="url(#clip0)">
<path fill-rule="evenodd" clip-rule="evenodd" d="M28.7531 5.18745C28.6426 4.80382 28.3612 4.58429 28.066 4.37753C27.7238 4.18626 27.496 3.88876 27.1202 3.72874C26.9417 3.50649 26.493 3.37581 26.3472 3.2435C26.2749 3.17748 26.2749 3.21932 26.1753 3.16253C25.8355 2.96773 25.5334 2.71506 25.1448 2.59524C24.6049 2.10538 23.9353 1.73833 23.3417 1.299C22.9906 1.14414 22.6704 0.959932 22.3971 0.732526C22.0374 0.556742 21.9377 0.138881 21.4519 0.0834561C21.4458 0.03428 21.4386 -0.0119075 21.3664 0.0027638C21.25 0.0280311 21.2013 0.117689 21.0228 0.0834561C20.3768 0.447251 19.92 0.988188 19.3049 1.37969C18.5538 1.83315 17.8039 2.2866 17.0726 2.75744C16.6853 2.96067 16.3996 3.25735 15.9558 3.4057C15.8527 3.60566 15.66 3.72276 15.4397 3.81052C15.2565 3.89257 15.1203 4.22892 14.9248 4.05341C13.8456 3.61327 12.9854 2.96556 12.0048 2.43358C11.6209 2.06572 10.9694 1.95188 10.5438 1.62313C9.92747 1.44843 9.51362 1.08328 8.74064 1.05557C8.1923 1.02378 7.95384 1.28705 7.45215 1.29927C5.28614 2.65855 2.65415 3.57931 0.410952 4.86495C0.294314 5.15973 0.299498 5.56999 0.0665097 5.75582C-0.0486885 7.0268 0.0089106 8.35346 0.0665097 9.64508C0.228939 13.2893 -0.22091 17.4614 0.324265 21.2305C0.373513 21.8595 0.220875 22.6792 0.41124 23.1756C0.433704 23.3424 0.63962 23.3378 0.753954 23.4185C0.966783 23.3131 1.1704 23.5997 1.18278 23.4185C1.3789 23.6385 1.33743 24.0836 1.86994 23.9863C2.41569 24.0684 2.52772 23.7415 2.81542 23.5801C3.08096 23.3984 3.30934 23.1832 3.50229 22.9332C4.05006 22.5852 4.45815 22.1065 4.96157 21.7171C5.44511 21.3091 5.91685 20.8893 6.42314 20.5019C6.68119 20.3141 6.95651 20.1413 7.19554 19.9351C7.54402 19.8321 7.69349 19.5393 8.05435 19.448C9.24204 20.002 10.2379 20.7363 11.404 21.312C11.9564 21.6275 12.514 21.9394 12.9491 22.3654C13.2841 22.4551 13.5709 22.589 13.8076 22.7694C14.0602 22.749 14.0723 22.9533 14.324 22.9327C14.2845 23.1856 14.5072 23.1908 14.7517 23.1753C15.4109 22.9313 15.9074 22.5357 16.3852 22.122C16.9278 21.7707 17.4744 21.4224 17.9306 20.9876C18.6013 20.7556 18.908 20.1815 19.5626 19.9351C19.755 19.683 20.1401 19.6153 20.3353 19.367C20.6374 19.2203 20.8333 18.9739 21.1941 18.8812C22.3548 19.5958 23.1609 20.6445 24.2008 21.474C24.4983 21.6248 24.5968 21.9622 24.9729 22.041C25.2059 22.2804 25.3704 22.5849 25.7462 22.6892C26.0273 22.8827 26.0348 23.3348 26.5192 23.3375C26.8426 23.491 26.9126 23.885 27.4641 23.8236C27.7979 23.6711 27.8998 23.4117 27.9793 23.0131C28.0625 22.5958 27.9162 22.1374 27.9793 21.7169C28.1178 21.4156 28.2584 21.1156 28.3232 20.7445C28.7805 17.1516 28.4692 12.8356 28.6665 8.99601C28.8214 8.451 28.748 7.71553 28.7531 7.05152C28.756 6.36849 28.8571 5.69143 28.7531 5.18745ZM1.86994 22.689C1.82587 22.6466 1.93301 22.5852 1.95662 22.6086C2.0004 22.6496 1.89442 22.7113 1.86994 22.689ZM26.9489 9.32014C26.7357 12.9488 26.9765 17.0837 26.7763 20.8254C25.6318 20.3663 24.8018 19.6102 23.7705 19.0426C22.6505 18.5864 21.987 17.701 20.7644 17.3413C20.0401 17.4673 19.6948 17.9526 19.1329 18.2319C18.7128 18.6188 18.1388 18.8608 17.7601 19.2858C16.719 19.8979 15.8564 20.6771 14.925 21.3922C14.5939 21.3275 14.5432 20.9963 14.3243 20.8254C14.1679 20.5942 13.835 20.5296 13.7227 20.2587C13.0395 19.9835 12.59 19.4901 11.8331 19.286C11.1808 18.9828 10.5625 18.6481 9.85691 18.3946C9.65934 18.1501 9.31951 18.0376 9.17062 17.7461C8.9022 17.5945 8.69715 17.3826 8.31124 17.3416C7.74533 17.2924 7.40089 17.4543 7.10943 17.6654C6.9614 17.9846 6.48506 17.9947 6.33674 18.3139C6.02801 18.4802 5.87336 18.7946 5.5629 18.9619C5.32991 19.201 5.16604 19.505 4.7905 19.6102C4.36398 20.1267 3.78626 20.4989 3.41589 21.0678C3.1374 21.2645 2.96605 21.5623 2.72816 21.797C2.67085 21.9856 2.44449 22.0149 2.3866 22.2024C2.2858 22.226 2.13777 22.6618 2.12769 22.2847C2.37594 21.9657 2.02401 21.5207 2.04216 21.1496C1.95144 16.1589 1.79275 11.2301 1.52751 6.40354C1.50879 6.14298 1.83307 6.20629 1.95662 6.07968C2.08507 5.98486 2.30769 5.97888 2.3866 5.83625C2.75466 5.72458 2.95136 5.45126 3.33007 5.35019C3.94955 5.01492 4.48263 4.60059 5.13379 4.29711C5.69624 3.90914 6.46173 3.71325 7.02361 3.32446C7.45704 3.27501 7.55727 2.9104 8.05463 2.91991C8.33572 2.75309 8.59405 2.564 8.91372 2.43386C9.78376 3.04353 10.7736 3.54127 11.6618 4.13464C12.0995 4.45062 12.632 4.67803 13.0361 5.02579C13.5421 5.24994 13.833 5.67839 14.4101 5.83597C15.2286 5.7436 15.7798 5.39937 16.2991 5.02579C16.8391 4.67042 17.4214 4.35607 17.9314 3.97299C19.0739 3.35 19.992 2.51319 21.1089 1.86657C21.1722 1.79076 21.2644 1.74295 21.3672 1.70355C21.8833 2.1081 22.3271 2.5803 22.9981 2.83813C23.5747 3.18644 24.1418 3.54208 24.8024 3.81024C25.1129 4.21914 25.5722 4.48811 26.0048 4.7829C26.3688 5.11463 26.747 5.43197 27.2072 5.67405C27.1257 6.85128 27.0217 8.0709 26.9489 9.32014ZM22.2249 7.29468C21.7454 6.829 21.6302 6.02045 21.0231 5.67405C20.5035 5.67024 20.4295 6.08702 20.3353 6.48423C20.3892 7.02734 20.7019 7.32647 20.8503 7.78128C20.371 7.97608 19.8262 8.11057 19.1327 8.10514C18.9112 8.38281 18.4179 8.40264 18.4455 8.91478C18.5754 9.06448 18.6353 9.17614 18.8761 9.2389C19.1036 9.29895 19.467 9.1938 19.7337 9.2389C20.2691 9.09572 20.7777 8.92727 21.3664 8.83408C21.7742 9.15088 21.9458 9.69046 22.2246 10.1303C22.5443 10.5311 22.6145 11.1671 23.5128 11.0215C23.6139 10.8729 23.7377 10.7473 23.8564 10.6167C23.7115 9.72713 23.1297 9.24923 22.8259 8.50996C23.2985 8.4692 23.592 8.25973 24.0289 8.18583C24.4312 8.08069 24.801 7.94185 24.8016 7.45688C24.515 6.34485 23.0477 7.24252 22.2249 7.29468ZM20.6795 9.15821C20.3293 9.54103 19.389 9.76245 19.734 10.5349C20.1441 10.737 20.3682 10.3422 20.6795 10.2107C20.9269 9.98524 21.3044 9.88254 21.1944 9.31987C21.0144 9.27341 20.9493 9.11936 20.6795 9.15821ZM9.51448 9.2389C8.97939 9.56004 7.74533 9.94286 8.31095 10.7789C8.86102 10.8112 9.10668 10.5558 9.34284 10.2928C9.74747 10.1882 9.91508 9.86053 10.0294 9.48207C9.89061 9.36986 9.81861 9.19516 9.51448 9.2389ZM11.8331 11.1834C11.8147 10.9862 11.5984 10.818 11.4893 10.6976C11.3533 10.5479 11.2393 10.302 10.974 10.2931C10.6803 10.2575 10.7157 10.5351 10.5444 10.6169C10.5962 11.0541 10.913 11.2418 11.0607 11.589C11.3381 11.8406 11.4196 12.2756 11.9187 12.3183C11.9377 12.2547 11.9907 12.2242 12.0915 12.2376C12.3944 11.9281 12.1174 11.3991 11.8331 11.1834ZM17.7601 11.6697C17.7062 11.971 17.4076 12.0406 17.5017 12.4799C17.5979 12.4968 17.6354 12.5693 17.6734 12.6421C18.0849 12.8087 18.4228 12.4381 18.7044 12.237C19.0126 11.9873 19.3599 11.7757 19.3904 11.2649C18.8772 10.659 18.1494 11.4103 17.7601 11.6697ZM6.85197 11.3456C6.38801 11.7189 5.68213 11.8626 5.64872 12.6421C5.98337 13.0149 6.48189 12.6383 6.76614 12.4799C6.97724 12.1669 7.35769 12.0121 7.36719 11.5073C7.21426 11.4358 7.14889 11.2809 6.85197 11.3456ZM16.8143 12.966C16.6533 12.9016 16.5007 12.8304 16.2985 12.8043C16.285 12.898 16.1634 12.8921 16.0413 12.885C15.7337 13.1542 15.311 13.4208 15.0106 13.6142C14.9812 13.6338 14.9487 13.7479 14.925 13.7764C14.902 13.8025 14.7767 13.7493 14.752 13.7764C14.72 13.815 14.6811 13.9875 14.6676 14.019C14.6238 14.1231 14.5576 14.1791 14.5823 14.3432C14.8562 14.911 15.6522 14.5654 15.9564 14.2627C16.2651 13.8794 16.9304 13.831 16.8995 13.1284C16.8333 13.11 16.8008 13.0605 16.8143 12.966ZM4.01723 14.019C4.1883 14.1005 4.15345 14.3774 4.44692 14.3432C4.9152 14.1918 5.28873 13.95 5.30572 13.3711C4.79136 12.96 4.01348 13.4292 4.01723 14.019ZM12.6928 13.2091H12.5206C12.4218 13.305 12.4229 13.496 12.4342 13.6949C12.702 14.1008 13.1954 14.8458 13.8079 14.4239C13.9151 13.9449 13.6204 13.8457 13.4646 13.6145C13.1689 13.5159 13.1775 13.129 12.6928 13.2091Z" fill="white"/>
</g>
<defs>
<clipPath id="clip0">
<rect width="28.8" height="24" fill="white"/>
</clipPath>
</defs>
</svg>

<svg width="29" height="24" fill="none" xmlns="http://www.w3.org/2000/svg"><g clip-path="url(#clip0)"><path fill-rule="evenodd" clip-rule="evenodd" d="M28.753 5.187c-.11-.383-.392-.603-.687-.81-.342-.19-.57-.488-.946-.648-.178-.223-.627-.353-.773-.486-.072-.066-.072-.024-.172-.08-.34-.195-.642-.448-1.03-.568-.54-.49-1.21-.857-1.803-1.296a3.973 3.973 0 01-.945-.566c-.36-.176-.46-.594-.945-.65-.006-.049-.013-.095-.086-.08-.116.025-.165.115-.343.08-.646.364-1.103.905-1.718 1.297-.751.453-1.501.907-2.232 1.377-.388.204-.673.5-1.117.649-.103.2-.296.317-.516.405-.183.082-.32.418-.515.242-1.08-.44-1.94-1.087-2.92-1.62-.384-.367-1.036-.481-1.461-.81-.617-.175-1.03-.54-1.803-.567-.549-.032-.787.231-1.289.243C5.286 2.66 2.654 3.58.411 4.865c-.117.295-.112.705-.344.89-.116 1.272-.058 2.598 0 3.89.162 3.644-.288 7.816.257 11.585.05.63-.103 1.45.087 1.946.023.166.229.162.343.243.213-.106.416.18.429 0 .196.22.154.665.687.567.546.082.658-.245.945-.406a3 3 0 00.687-.647c.548-.348.956-.826 1.46-1.216.483-.408.955-.828 1.461-1.215.258-.188.534-.36.773-.567.348-.103.497-.396.858-.487 1.188.554 2.184 1.288 3.35 1.864.552.316 1.11.627 1.545 1.053.335.09.622.224.859.404.252-.02.264.184.516.164-.04.253.183.258.428.242.659-.244 1.155-.64 1.633-1.053.543-.351 1.09-.7 1.546-1.134.67-.232.977-.806 1.632-1.053.192-.252.577-.32.772-.568.302-.147.498-.393.86-.486 1.16.715 1.966 1.764 3.006 2.593.297.15.396.488.772.567.233.24.397.544.773.648.281.194.289.646.773.648.324.154.394.548.945.487.334-.153.436-.412.515-.81.084-.418-.063-.877 0-1.297.139-.301.28-.601.344-.973.457-3.592.146-7.908.343-11.748.155-.545.082-1.28.087-1.944.003-.684.104-1.36 0-1.865zM1.87 22.69c-.044-.042.063-.104.087-.08.043.04-.063.102-.087.08zM26.949 9.32c-.213 3.629.027 7.764-.173 11.505-1.144-.459-1.974-1.215-3.006-1.782-1.12-.457-1.783-1.342-3.006-1.702-.724.126-1.07.612-1.631.89-.42.388-.994.63-1.373 1.055-1.041.612-1.904 1.391-2.835 2.106-.331-.064-.382-.396-.6-.567-.157-.23-.49-.295-.602-.566-.684-.276-1.133-.769-1.89-.973-.652-.303-1.27-.638-1.976-.891-.198-.245-.537-.357-.686-.649-.269-.151-.474-.363-.86-.404-.566-.05-.91.112-1.202.323-.148.32-.624.33-.772.649-.309.166-.464.48-.774.648-.233.239-.397.543-.772.648-.427.517-1.005.889-1.375 1.458-.279.197-.45.494-.688.729-.057.189-.284.218-.341.405-.101.024-.25.46-.26.083.249-.32-.103-.764-.085-1.135-.09-4.991-.25-9.92-.514-14.746-.02-.261.305-.198.429-.324.128-.095.35-.101.43-.244.368-.111.564-.385.943-.486.62-.335 1.153-.75 1.804-1.053.562-.388 1.328-.584 1.89-.973.433-.049.533-.414 1.03-.404.282-.167.54-.356.86-.486.87.61 1.86 1.107 2.748 1.7.438.317.97.544 1.374.892.506.224.797.652 1.374.81.819-.092 1.37-.437 1.89-.81.54-.356 1.121-.67 1.631-1.053 1.143-.623 2.061-1.46 3.178-2.106a.609.609 0 01.258-.163c.516.404.96.876 1.631 1.134.577.348 1.144.704 1.804.972.31.41.77.678 1.203.973.364.332.742.649 1.202.891-.081 1.177-.185 2.397-.258 3.646zm-4.724-2.025c-.48-.466-.595-1.275-1.202-1.62-.52-.005-.593.412-.688.81.054.542.367.841.515 1.296a4.312 4.312 0 01-1.717.324c-.222.278-.715.298-.688.81.13.15.19.261.431.324.228.06.591-.045.858 0 .535-.143 1.044-.312 1.632-.405.408.317.58.856.859 1.296.32.401.39 1.037 1.288.891.1-.148.225-.274.343-.404-.145-.89-.726-1.368-1.03-2.107.473-.04.766-.25 1.203-.324.402-.105.772-.244.773-.73-.287-1.111-1.754-.213-2.577-.161zm-1.546 1.863c-.35.383-1.29.604-.945 1.377.41.202.634-.193.945-.324.248-.226.625-.328.515-.891-.18-.047-.245-.2-.514-.162zm-11.165.08c-.535.322-1.769.705-1.203 1.54.55.033.796-.222 1.032-.485.404-.105.572-.432.686-.81-.138-.113-.21-.288-.515-.244zm2.32 1.945c-.02-.197-.236-.365-.345-.485-.136-.15-.25-.396-.515-.405-.294-.035-.258.242-.43.324.052.437.369.625.517.972.277.252.359.687.858.73.019-.064.072-.095.172-.081.303-.31.026-.839-.258-1.055zm5.926.487c-.054.301-.352.37-.258.81.096.017.133.09.171.162.412.167.75-.204 1.031-.405.309-.25.656-.461.686-.972-.513-.606-1.24.145-1.63.405zm-10.908-.324c-.464.373-1.17.517-1.203 1.296.334.373.833-.004 1.117-.162.211-.313.592-.468.601-.973-.153-.071-.218-.226-.515-.161zm9.962 1.62c-.16-.064-.313-.136-.515-.162-.014.094-.136.088-.258.081-.307.27-.73.536-1.03.73-.03.019-.062.133-.086.161-.023.027-.148-.027-.173 0-.032.039-.07.212-.084.243-.044.104-.11.16-.086.324.274.568 1.07.222 1.374-.08.31-.384.974-.432.944-1.135-.067-.018-.1-.068-.086-.162zM4.017 14.019c.171.082.136.358.43.324.468-.151.842-.393.859-.972-.515-.411-1.293.058-1.289.648zm8.676-.81h-.172c-.1.096-.098.287-.087.486.268.406.761 1.15 1.374.729.107-.48-.188-.578-.343-.81-.296-.098-.287-.485-.772-.405z" fill="#fff"/></g><defs><clipPath id="clip0"><path fill="#fff" d="M0 0h28.8v24H0z"/></clipPath></defs></svg>
